public/flags/MW.svg

<svg fill="none" height="53" viewBox="0 0 61 53" width="61" xmlns="http://www.w3.org/2000/svg" xmlns:xlink="http://www.w3.org/1999/xlink"><mask id="a" height="43" maskUnits="userSpaceOnUse" width="59" x="1" y="3"><rect fill="#fff" height="42.5" rx="4.24286" width="59" x="1" y="3"/></mask><rect fill="#fff" height="42.5" rx="4.24286" width="59" x="1" y="3"/><g clip-rule="evenodd" fill-rule="evenodd" mask="url(#a)"><path d="m1 17.1667h59v-14.1667h-59z" fill="#262626"/><path d="m30.5001 28.5c5.4308 0 9.8333-4.4399 9.8333-9.9167s-4.4025-9.91667-9.8333-9.91667-9.8334 4.43987-9.8334 9.91667 4.4026 9.9167 9.8334 9.9167z" fill="#e42038"/><path d="m1 31.3334h59v-14.1667h-59z" fill="#e42038"/><path d="m1 45.5h59v-14.1667h-59z" fill="#47b849"/></g></svg>

<svg width="61" height="53" viewBox="0 0 61 53" fill="none" xmlns="http://www.w3.org/2000/svg">
<rect x="1" y="3" width="59" height="42.5" rx="4.24286" fill="white"/>
<mask id="mask0" mask-type="alpha" maskUnits="userSpaceOnUse" x="1" y="3" width="59" height="43">
<rect x="1" y="3" width="59" height="42.5" rx="4.24286" fill="white"/>
</mask>
<g mask="url(#mask0)">
<path fill-rule="evenodd" clip-rule="evenodd" d="M1 17.1667H60V3H1V17.1667Z" fill="#262626"/>
<path fill-rule="evenodd" clip-rule="evenodd" d="M30.5001 28.5C35.9309 28.5 40.3334 24.0601 40.3334 18.5833C40.3334 13.1065 35.9309 8.66663 30.5001 8.66663C25.0693 8.66663 20.6667 13.1065 20.6667 18.5833C20.6667 24.0601 25.0693 28.5 30.5001 28.5Z" fill="#E42038"/>
<path fill-rule="evenodd" clip-rule="evenodd" d="M1 31.3334H60V17.1667H1V31.3334Z" fill="#E42038"/>
<path fill-rule="evenodd" clip-rule="evenodd" d="M1 45.5H60V31.3333H1V45.5Z" fill="#47B849"/>
</g>
</svg>
